assets/Ram/Flat/ram_flat.svg

<svg width="32" height="32" viewBox="0 0 32 32" fill="none" xmlns="http://www.w3.org/2000/svg">
<path d="M20.0201 26.54V21.39L23.2701 21.41V26.23C23.2701 26.59 23.2201 26.99 22.9301 27.24L20.3401 29.61C20.0801 29.85 19.8501 30.01 19.5301 30.01H18.4101C18.1601 30.01 18.0001 29.74 18.1101 29.52L19.9101 26.99C19.9801 26.85 20.0201 26.7 20.0201 26.54Z" fill="#D3883E"/>
<path d="M12.2301 30C12.0401 30 11.8901 29.85 11.8901 29.66V22.46H15.0101V24.45C15.0101 25.24 14.6901 26.01 14.1301 26.57C14.0001 26.7 14.0001 26.87 14.0001 27.05V29.66C14.0001 29.85 13.7801 30 13.5901 30H12.2301Z" fill="#D3883E"/>
<path d="M11.34 30C11.15 30 11 29.85 11 29.66V22.46H14.12V24.45C14.12 25.24 13.8 26.01 13.24 26.57C13.11 26.7 13 26.87 13 27.05V29.66C13 29.85 12.89 30 12.7 30H11.34Z" fill="#F3AD61"/>
<path d="M27.69 26.58L24.85 24.62L27 22.5L30 24.62V29.67C30 29.86 29.85 30.01 29.66 30.01H28.31C28.12 30.01 28 29.86 28 29.67V27.13C28 26.91 27.87 26.71 27.69 26.58Z" fill="#F3AD61"/>
<path d="M12.02 24.62C11.46 24.62 11 24.16 11 23.6V22.47L13.5 21L16.02 22.47V23.6C16.02 24.16 15.56 24.62 15 24.62H12.02Z" fill="#B4ACBC"/>
<path d="M20.02 24.56H23.37C23.93 24.56 24.39 24.1 24.38 23.54V21H19V23.54C19 24.1 19.46 24.56 20.02 24.56Z" fill="#B4ACBC"/>
<path d="M12 6V4.24303C12 3.02348 11.0035 2.02097 9.76311 2.0003C9.03162 1.98996 8.37433 2.24834 7.95028 2.73409C7.78066 2.93046 7.53683 3.03381 7.27179 3.03381H5.59678C4.82288 3.03381 4.13379 3.57124 4.01717 4.32571C3.87936 5.22486 4.58965 6 5.48016 6H5.58768L4 11.69V13.37C4 14.27 4.73 15 5.63 15H6V19.47C6 21.12 7.34 22.47 9 22.47H10V23.6C10 24.16 10.46 24.62 11.02 24.62H14C14.56 24.62 15.02 24.16 15.02 23.6V22.47H22.43V23.6C22.43 24.16 22.89 24.62 23.45 24.62L30 24.62V24.25C30 23.8 29.82 23.38 29.51 23.06L28.3 21.69C28.11 21.5 28 21.24 28 20.98V16C28 16.61 28.45 17 29.07 17C29.55 17 30 16.55 30 15.97V15.06C30 12.01 27.53 9.54 24.48 9.54C23.85 9.54 23.23 9.63 22.63 9.8L16.58 11.53C15.74 11.77 14.83 11.42 14.41 10.66C14.405 10.645 14.3975 10.6325 14.39 10.62C14.3825 10.6075 14.375 10.595 14.37 10.58L12.44 6.72C12.3027 6.44838 12.1235 6.20617 11.9126 6H12Z" fill="#CDC4D6"/>
<path d="M5.58393 6L2.35013 9.31269C2.12732 9.54025 2 9.85449 2 10.1796C2 11.1873 2.79576 12 3.78249 12H7.49602C8.87533 12 9.98939 10.8622 9.98939 9.45356V6H5.58393Z" fill="#F3AD61"/>
<path d="M13.7202 5H9.49021C8.89021 5 8.37021 5.49 8.39021 6.1C8.40021 6.68 8.87021 7.15 9.46021 7.15H13.7402C14.3302 7.15 14.8202 7.61 14.8402 8.19C14.8602 8.8 14.3702 9.3 13.7602 9.3H11.1302C10.8302 9.3 10.6402 9.63 10.7902 9.89C11.3702 10.83 12.4102 11.45 13.5902 11.45H13.7702C15.5702 11.45 17.0302 9.97 17.0002 8.16C16.9702 6.4 15.4902 5 13.7202 5Z" fill="#E19747"/>
<path d="M5.98999 8.99999C5.98999 9.29999 6.21221 9.53999 6.48999 9.53999C6.75851 9.53999 6.98999 9.29999 6.98999 8.99999V8.18999C6.98999 7.88999 6.76777 7.64999 6.48999 7.64999C6.21221 7.64999 5.98999 7.88999 5.98999 8.18999V8.99999Z" fill="#1C1C1C"/>
<path d="M3 11H2.18993C2.06839 10.7537 2 10.475 2 10.1796C2 10.1192 2.00439 10.0592 2.01298 10H3C3.27614 10 3.5 10.2239 3.5 10.5C3.5 10.7761 3.27614 11 3 11Z" fill="#1C1C1C"/>
</svg>

<svg xmlns="http://www.w3.org/2000/svg" width="32" height="32" fill="none"><path fill="#D3883E" d="M20.02 26.54v-5.15l3.25.02v4.82c0 .36-.05.76-.34 1.01l-2.59 2.37c-.26.24-.49.4-.81.4h-1.12a.34.34 0 0 1-.3-.49l1.8-2.53c.07-.14.11-.29.11-.45ZM12.23 30c-.19 0-.34-.15-.34-.34v-7.2h3.12v1.99c0 .79-.32 1.56-.88 2.12-.13.13-.13.3-.13.48v2.61c0 .19-.22.34-.41.34h-1.36Z"/><path fill="#F3AD61" d="M11.34 30c-.19 0-.34-.15-.34-.34v-7.2h3.12v1.99c0 .79-.32 1.56-.88 2.12-.13.13-.24.3-.24.48v2.61c0 .19-.11.34-.3.34h-1.36ZM27.69 26.58l-2.84-1.96L27 22.5l3 2.12v5.05c0 .19-.15.34-.34.34h-1.35c-.19 0-.31-.15-.31-.34v-2.54c0-.22-.13-.42-.31-.55Z"/><path fill="#B4ACBC" d="M12.02 24.62c-.56 0-1.02-.46-1.02-1.02v-1.13L13.5 21l2.52 1.47v1.13c0 .56-.46 1.02-1.02 1.02h-2.98ZM20.02 24.56h3.35c.56 0 1.02-.46 1.01-1.02V21H19v2.54c0 .56.46 1.02 1.02 1.02Z"/><path fill="#CDC4D6" d="M12 6V4.243c0-1.22-.996-2.222-2.237-2.243-.731-.01-1.389.248-1.813.734a.881.881 0 0 1-.678.3H5.597c-.774 0-1.463.537-1.58 1.292C3.88 5.225 4.59 6 5.48 6h.108L4 11.69v1.68c0 .9.73 1.63 1.63 1.63H6v4.47c0 1.65 1.34 3 3 3h1v1.13c0 .56.46 1.02 1.02 1.02H14c.56 0 1.02-.46 1.02-1.02v-1.13h7.41v1.13c0 .56.46 1.02 1.02 1.02H30v-.37c0-.45-.18-.87-.49-1.19l-1.21-1.37c-.19-.19-.3-.45-.3-.71V16c0 .61.45 1 1.07 1 .48 0 .93-.45.93-1.03v-.91c0-3.05-2.47-5.52-5.52-5.52-.63 0-1.25.09-1.85.26l-6.05 1.73c-.84.24-1.75-.11-2.17-.87a.2.2 0 0 0-.02-.04c-.008-.012-.015-.025-.02-.04l-1.93-3.86a2.726 2.726 0 0 0-.527-.72H12Z"/><path fill="#F3AD61" d="M5.584 6 2.35 9.313c-.223.227-.35.541-.35.867C2 11.187 2.796 12 3.782 12h3.714c1.38 0 2.493-1.138 2.493-2.546V6H5.584Z"/><path fill="#E19747" d="M13.72 5H9.49c-.6 0-1.12.49-1.1 1.1.01.58.48 1.05 1.07 1.05h4.28c.59 0 1.08.46 1.1 1.04.02.61-.47 1.11-1.08 1.11h-2.63c-.3 0-.49.33-.34.59.58.94 1.62 1.56 2.8 1.56h.18c1.8 0 3.26-1.48 3.23-3.29C16.97 6.4 15.49 5 13.72 5Z"/><path fill="#1C1C1C" d="M5.99 9c0 .3.222.54.5.54.269 0 .5-.24.5-.54v-.81c0-.3-.222-.54-.5-.54s-.5.24-.5.54V9ZM3 11h-.81a1.85 1.85 0 0 1-.19-.82c0-.06.004-.12.013-.18H3a.5.5 0 0 1 0 1Z"/></svg>
